X: 1
T: Miss McDonald
M: 4/4
L: 1/8
R: reel
K: Gmaj
BG G2 BdcA | BGBd g2 fg | aAAG ABcA |1 Bdef gedc :|2 Bdef gedB ||
G3 D EDB,D | G3 D B,G,B,D | G3 D EDB,D |1egdB BAAB :|2 egdB cdef ||
gd d2 gagf | edef gdBd | gd d2 gagf | edef g3 f |
 gd d2 gagf | edef gdBd | g3 a gfed | egfa g3 d |
egdB cBAB | GB B2 GB B2 | egdB cBAB | GEDE G4 |
egdB cBAB | GB B2 GBdB | e3 g f3 e | dfaf gedc |
